X:1
T:Países soñados
T:Países soñados - Dreamed Countries
T:Palacio encantado en el mar - Enchanted Palace in the Sea (translations are rough, I don't know much Spanish) 
T:Composed by Enrique Granados Arranged by Kagami Covers 
T:Public Domain. All Rights Reserved.
T:Public Domain. All Rights Reserved.
T:Public Domain. All Rights Reserved.
T:Public Domain. All Rights Reserved.
T:Public Domain. All Rights Reserved.
C:Composed by Enrique Granados
Z:Public Domain. All Rights Reserved.
%%score { 1 | ( 2 3 ) }
L:1/8
Q:3/8=35
M:6/8
K:C
V:1 treble nm="Piano" snm="Pno."
V:2 bass 
V:3 bass 
V:1
"^\n""^A""_legato throughout" x6 | %1
"^play with feeling (dreamy and mysterious), each measure roughly soft, slow on low notes; louder, fast on high notes" x6 | %2
 x6 | x6 | x6 |!mf! =A3- A2- A/B/ | (^c3 =c2 !fermata!=E/!fermata!=F/) |!>(! _d3- d2- d/c/ | %8
 _B6!>)! | x6 | x6 | z3 z2 z/ !fermata![ff']/ |!ff! [_g_g']6 | [_G_g]6 | (_D4 DD) | _G6 | %16
"^L.H.-----R.H.--------- L.H.---------R.H.-------" x6 | z3 (e3 | (f3) _g2 _e) |!>(! _e2 (_B _c2 D | %20
 _E6)!>)! | x6 | x6 |!p! (^F6 | G3 _B2 B/c/ | d6) | (E3 ^F3 | ^F6) | x6 | z3 (^F3 | d6) | %31
 G3- G2 (A/B/) | D4- D-D/E/ | %33
"^hold pedal with fermata, 3 counts""_ritardando"[Q:3/8=35] F6-[Q:3/8=35][Q:3/8=34]"^.8"[Q:3/8=34]"^.5"[Q:3/8=33]"^.9"[Q:3/8=33]"^.2"[Q:3/8=32]"^.2"[Q:3/8=30]"^.9"[Q:3/8=29]"^.4"[Q:3/8=27]"^.5"[Q:3/8=25]"^.3"[Q:3/8=22]"^.8" | %34
[Q:3/8=20] F6 || %35
[Q:3/8=25]"^B""^play with feeling (tranquil and melancholic), don't muddle the notes"!f! !arpeggio![D^Fd^f]3 [Bd]2"^for first chord, use L.H. for first 3 notes (bottom up), R.H. for next 4,\nthen cross over and use L.H. for last 2 notes, for the rest of the piece, use pedal as needed\n" [GB] | %36
 [D^F]3 x x2 |"_R.H. R.H.         R.H." x6 |!p! x6 | ([^ce]3 [Ac]2 [^FA] | [^CE]3 [A,C^F]3 | %41
 [^C^F]6) ||"^recitando, as written" x6 |"_R.H." x6 | x6 | x6 |!pp! z3 !arpeggio![^A,E]3 | %47
 !arpeggio![B,D]3 !arpeggio!!fermata![^C^F]3 || z2 (E [^C^F]3 | %49
 D^CB,"_R.H.                               R.H.         R.H.           R.H." ^A,3) | %50
"_ritardando---------------------."[Q:3/8=25] x6[Q:3/8=24]"^.9"[Q:3/8=24]"^.6" | %51
[Q:3/8=23]"^.1" x6[Q:3/8=21]"^.2"[Q:3/8=20] || %52
 !arpeggio![D^Fd^f]3 [Bd]2"^for first chord, use L.H. for first 3 notes (bottom up), R.H. for next 4,\nthen cross over and use L.H. for last 2 notes.\n" [GB] | %53
 [D^F]3 x x2 |"_R.H. R.H.         R.H." x6 | x6 ||!p![Q:3/8=40] x6 | x6 | x6 | x6 | x6 | x6 | x6 | %63
 x6 | %64
[Q:3/8=40] x6[Q:3/8=39]"^.9"[Q:3/8=39]"^.9"[Q:3/8=39]"^.8"[Q:3/8=39]"^.7"[Q:3/8=39]"^.6"[Q:3/8=39]"^.5"[Q:3/8=39]"^.3"[Q:3/8=39]"^.1"[Q:3/8=38]"^.9" | %65
[Q:3/8=38]"^.6" x6[Q:3/8=38]"^.3"[Q:3/8=37]"^.9"[Q:3/8=37]"^.6"[Q:3/8=37]"^.2"[Q:3/8=36]"^.7"[Q:3/8=36]"^.2"[Q:3/8=35]"^.7"[Q:3/8=35]"^.1"[Q:3/8=34]"^.5"[Q:3/8=33]"^.9"[Q:3/8=33]"^.2" | %66
[Q:3/8=32]"^.5" x6[Q:3/8=31]"^.7"[Q:3/8=30]"^.9"[Q:3/8=30][Q:3/8=29]"^.1"[Q:3/8=28]"^.1"[Q:3/8=27]"^.1"[Q:3/8=26]"^.1"[Q:3/8=24]"^.9"[Q:3/8=23]"^.8"[Q:3/8=22]"^.6"[Q:3/8=21]"^.3" | %67
[Q:3/8=20]!ppp! x6 |] %68
V:2
"_use both L.H. and R.H. for this part"!p!!<(! (!fermata!B,,,/!fermata!^F,,/!fermata!B,,/!mp!D,/^F,/!mf!B,/!<)!!>(! D/!mp!B,/F,/!p!!fermata!D,/!fermata!B,,/!fermata!F,,/)!>)! | %1
!p!!<(! (!fermata!B,,,/!fermata!=F,,/!fermata!B,,/!mp!D,/G,/!mf!B,/!<)!!>(! D/!mp!B,/G,/!p!!fermata!D,/!fermata!B,,/!fermata!F,,/)!>)! | %2
!p!!<(! (!fermata!B,,,/!fermata!^C,,/!fermata!B,,/!mp!^E,/^G,/!mf!^C/!<)!!>(! D/!mp!B,/G,/!p!!fermata!E,/!fermata!B,,/!fermata!C,,/)!>)! | %3
!p!!<(! (!fermata!^A,,,/!fermata!^C,,/!fermata!^F,,/!mp!^C,/^F,/!mf!^A,/!<)!!>(! ^C/!mp!A,/F,/!p!!fermata!C,/!fermata!F,,/!fermata!C,,/)!>)! | %4
!p!!<(! (!fermata!E,,/!fermata!^A,,/!fermata!^C,/!mf!G,/^A,/!f!^C/!<)!!>(! ^F/!mf!G/E/!p!!fermata!C/!fermata!A,/!fermata!=A,/)!>)! | %5
!p!"_use pedal as needed when L.H and R.H.\noverlap, but don't muddle the notes\n"!<(! (!fermata!^F,,/!fermata!^C,/!fermata!^D,/!mp!^F,/A,/!mf!B,/!>(! ^C/!mp!^D/F,/!p!!fermata!A,/!fermata!^C/!fermata!^D/)!<)!!>)! | %6
!p!!<(! (!fermata!^E,/!fermata!^G,/!fermata!^C/!mp!^E/[K:treble]^G/!mf!^g/!<)![K:bass]!>(! _E,/!mp!_B,/=C/!p!!fermata!_G/) x!>)! | %7
!p!!<(! (!fermata!F,,/!fermata!F,/!fermata!A,/[K:treble]!mp!_E/F/!mf!A/!<)!!>(! f/!mp!_d/A/!p!!fermata!F/!fermata!E/!fermata!A,/)!>)! | %8
!p!!<(! (!fermata!_B,,/!fermata!F,/!fermata!_B,/[K:treble]!mp!_D/F/!<)!!mf!_B/!>(! _d/!mp!B/G/!p!!fermata!D/!fermata!G,/!fermata!D,/)!>)! | %9
[K:bass]!p!!<(! (!fermata!_B,,/!fermata!_F,/!fermata!_B,/[K:treble]!mf!_D/_G/!f!_B/!<)!!>(! _d/!mf!B/G/[K:bass]!p!!fermata!D/!fermata!B,/!fermata!^F,/)!>)! | %10
!p!!<(! (!fermata!_B,,/!fermata!C,/!fermata!_B,/[K:treble]!mf!E/G/!f!_B/!<)!!>(! c/!mf!_d/B/!p!!fermata!G/!fermata!E/!fermata!_D/)!>)! | %11
[K:bass]!<(! (!fermata!A,,/!fermata!C,/!fermata!F,/A,/C/F/ A/A,/C/!fermata!F/!<)!!fermata!A/) z/ | %12
 (!fermata!A,,/!fermata!_E,/!fermata!_G,/C/[K:treble]_E/_G/ A,/C/E/!fermata!G/!fermata!A/!fermata!c/) | %13
[K:bass]!>(! (!fermata!_B,,/!fermata!_D,/_G,/!fermata!_B,/[K:treble]_D/_G/ _d/_B/G/!fermata!D/!fermata!B,/!fermata!G,/)!>)! | %14
 (!fermata!D,,/!fermata!_D,/!fermata!_G,/_C/G,/_C/ C,,/D,/!fermata!F,/!fermata!_C/!fermata!F) | %15
 (!fermata!_G,,/!fermata!_D,/!fermata!_G,/_B,/[K:treble]_D/_G/ _B/G/D/!fermata!B,/[K:bass]!fermata!G,/!fermata!D,/) | %16
 (!fermata!F,,/!fermata!_B,,/!fermata!F,/_A,/D/_G/) (_E,,/_B,,/_E,/!fermata!G,/!fermata!_D/!fermata!_G/) | %17
 (!fermata!_A,,,/!fermata!_A,,/!fermata!_E,/_A,/[K:treble]_C/_E/ _c/A/E/!fermata!_C/!fermata!A,/!fermata!E,/) | %18
 (!fermata!=A,,/!fermata!_E,/!fermata!_G,/C/[K:treble]_E/_G/ c/G/E/!fermata!C/!fermata!A,/!fermata!G,/) | %19
[K:bass] (!fermata!_B,,,/!fermata!_B,,/!fermata!_E,/_G,/B,/_E/) (B,,,/B,,/F,/!fermata!A,/!fermata!B,/!fermata!D/) | %20
!<(! (!fermata!_E,,/!fermata!_B,,/!fermata!_E,/_G,/_B,/_E/!<)!!>(! _G/E/B,/!fermata!G,/!fermata!E,/!fermata!B,,/)!>)! | %21
 (!fermata!^D,,/!fermata!A,,/!fermata!^D,/^F,/=B,/^D/ ^F/D/B,/!fermata!F,/!fermata!D,/!fermata!A,,/) | %22
 (!fermata!^G,,/!fermata!^D,/!fermata!^F,/A,/^B,/^D/) (^C,,/^C,/^G,/!fermata!B,/!fermata!=D/!fermata!^E/) | %23
 (!fermata!D,,/!fermata!A,,/!fermata!D,/^F,/A,/D/ ^F/D/A,/!fermata!F,/!fermata!D,/!fermata!A,,/) | %24
 (!fermata!D,,/!fermata!_B,,/!fermata!D,/G,/_B,/D/ G/D/B,/!fermata!G,/!fermata!D,/!fermata!B,,/) | %25
 (!fermata!D,,/!fermata!A,,/!fermata!D,/^F,/A,/D/ ^F/D/A,/!fermata!F,/!fermata!D,/!fermata!A,,/) | %26
 (!fermata!G,,/!fermata!D,/!fermata!E,/G,/_B,/D/) (^F,,/^C,/^F,/!fermata!^A,/!fermata!^C/!fermata!^F/) | %27
 (!fermata!B,,,/!fermata!^F,,/!fermata!B,,/D,/^F,/B,/ D/B,/F,/!fermata!D,/!fermata!B,,/!fermata!F,,/) | %28
!<(! (!fermata!B,,,/!fermata!=F,,/!fermata!B,,/D,/G,/B,/!<)!!>(! D/B,/G,/!fermata!D,/!fermata!B,,/!fermata!F,,/)!>)! | %29
 (!fermata!B,,,/!fermata!^F,,/!fermata!B,,/D,/^F,/B,/ D/B,/F,/!fermata!D,/!fermata!B,,/!fermata!F,,/) | %30
 (!fermata!B,,,/!fermata!D,,/!fermata!G,,/B,,/D,/G,/ B,/G,/D,/!fermata!B,,/!fermata!G,,/!fermata!D,,/) | %31
 (!fermata!B,,,/!fermata!D,,/!fermata!G,,/B,,/D,/G,/ B,/G,/D,/!fermata!B,,/!fermata!G,,/!fermata!D,,/) | %32
 (!fermata!B,,,/!fermata!D,,/!fermata!G,,/B,,/D,/G,/ B,/G,/D,/!fermata!B,,/!fermata!G,,/!fermata!D,,/) | %33
!ped! !fermata!B,,,/-!>(!!fermata!D,,/-G,,/-!fermata!D,/-G,/-B,/-[K:treble] D/-G/-B/-!fermata!d/-!fermata!g/-!fermata!b/-!>)! | %34
!pp! [B,,,D,,G,,D,G,B,DGBdgbd'g']6!ped-up! || %35
[K:bass]!ped!!f!!ped! !arpeggio![D,,A,,D,^F,A,]3 x x2!ped-up! | x3!<(! [B,D]2 [G,B,]!<)! | %37
"_L.H. L.H.          L.H." [D,,D,^F,A,]3 [B,,,D,F,B,]3 | [^F,,,^A,^C]6 | x6 | z3 [^F,,,^F,,]3 | %41
 [^C,,,^C,,]6 ||"_mare il canto, each note clear and fluid" z3 ^F,2 F, | %43
 ^F,3"_L.H." !arpeggio![^B,,F,D^F]3 | ^G,3- G,2 A, | B,3 !fermata!^CDB, | ^F,3 !arpeggio![^C,F,]3 | %47
 !arpeggio![B,,^F,]3 !arpeggio!!fermata![^A,,F,]3 || =A,,,3 A,,3 | %49
 [B,,^F,]3"_L.H.                               L.H.         L.H.           L.H." [^F,,,^F,,^C,F,]3 | %50
 ^C2 ^A, [^C,,^E,^G,]3 | [E,,E,^G,B,]2 B, [B,,,^D,^F,B,]3 || %52
!ped!!f!!ped! !arpeggio![D,,A,,D,^F,A,]3 x x2!ped-up! | x3 [B,D]2 [G,B,] | %54
"_L.H. L.H.          L.H." [D,,D,^F,A,]3 [B,,,D,F,B,]3 | !tenuto![^F,,,^C,^F,^A,^C]6 || %56
!<(! (B,,,/^C,,/D,,/E,,/^F,,/G,,/!<)!!>(! A,,/G,,/F,,/E,,/D,,/C,,/)!>)! | %57
!<(! (B,,,/^C,,/D,,/E,,/^F,,/G,,/!<)!!>(! A,,/G,,/F,,/E,,/D,,/C,,/)!>)! | [^F,B,D]6 | %59
!<(! [^E,^G,B,^E]6-!<)! |!<(! [E,G,B,E]6!<)! | [^F,A,B,^D]6 | [=G,B,^EG]6 |"_dim." [^F,B,^D^F]6- | %64
"^ritardando------------------------------------------------------------" [F,B,DF]6 | %65
"^-----------------------------------------------------------------------------------------------------------------------------" [^F,B,=D^F]6- | %66
 [F,B,DF]6- | !fermata![F,B,DF]6 |] %68
V:3
 x6 | x6 | x6 | x6 | x6 | x6 | x2[K:treble] x[K:bass] x3 | x3/2[K:treble] x9/2 | %8
 x3/2[K:treble] x9/2 |[K:bass] x3/2[K:treble] x3[K:bass] x3/2 | x3/2[K:treble] x9/2 |[K:bass] x6 | %12
 x2[K:treble] x4 |[K:bass] x2[K:treble] x4 | x6 | x2[K:treble] x3[K:bass] x | x3/2 x/ _F,, x x2 | %17
 x6[K:treble] | x2[K:treble] x4 |[K:bass] x6 | x6 | x6 | x6 | x6 | x6 | x6 | x6 | x6 | x6 | x6 | %30
 x6 | x6 | x6 | x3[K:treble] x3 | x6 ||[K:bass] x6 | x6 | x6 | x6 | x6 | x6 | x6 || x6 | x6 | x6 | %45
 x6 | x6 | x6 || x6 | x6 | x6 | x6 || x6 | x6 | x6 | x6 || x6 | x6 | %58
 (B,,,/^C,,/^D,,/E,,/^F,,/G,,/ A,,/G,,/F,,/E,,/D,,/C,,/) | %59
 (B,,,/^C,,/^D,,/^E,,/^F,,/^G,,/!>(! A,,/G,,/F,,/E,,/D,,/C,,/)!>)! | %60
 (B,,,/^C,,/^D,,/E,,/^F,,/G,,/!>(! A,,/G,,/F,,/E,,/D,,/C,,/)!>)! | %61
 (B,,,/^C,,/^D,,/E,,/^F,,/G,,/ A,,/G,,/F,,/E,,/D,,/C,,/) | %62
 (B,,,/^C,,/^D,,/E,,/^F,,/G,,/ A,,/G,,/F,,/E,,/D,,/C,,/) | %63
 (B,,,/^C,,/^D,,/E,,/^F,,/G,,/ A,,/G,,/F,,/E,,/D,,/C,,/) | %64
 (B,,,/^C,,/B,,,/C,,/B,,,/C,,/ B,,,/C,,/B,,,/C,,/B,,,/C,,/) | %65
 (B,,,/^C,,/B,,,/C,,/B,,,/C,,/ B,,,/C,,/B,,,/C,,/B,,,/C,,/) | %66
 (B,,,/^C,,/B,,,/C,,/B,,,/C,,/ B,,,/C,,/B,,,/C,,/B,,,/C,,/) | !fermata!B,,,6 |] %68

